public/search.svg

<svg width="24" height="24" viewBox="0 0 24 24" fill="none" xmlns="http://www.w3.org/2000/svg">
<path d="M18.774 17.6831L14.9247 13.834C15.6219 12.9101 16.0407 11.7643 16.0407 10.52C16.0407 7.47656 13.565 5 10.5203 5C7.47669 5 5 7.47656 5 10.52C5 13.5645 7.47669 16.0401 10.5203 16.0401C11.7646 16.0401 12.9105 15.6213 13.8345 14.9241L17.6838 18.7732C17.834 18.9234 18.032 19 18.2289 19C18.4258 19 18.6228 18.9244 18.774 18.7732C19.0753 18.4719 19.0753 17.9845 18.774 17.6831ZM6.09412 10.52C6.09412 8.07928 8.08044 6.09406 10.5203 6.09406C12.9612 6.09406 14.9465 8.08028 14.9465 10.52C14.9465 12.9598 12.9612 14.946 10.5203 14.946C8.07945 14.946 6.09412 12.9608 6.09412 10.52Z" fill="white" fill-opacity="0.8"/>
</svg>

<?xml version="1.0" encoding="UTF-8"?>
<svg id="Layer_1" xmlns="http://www.w3.org/2000/svg" version="1.1" viewBox="0 0 24 24">
  <!-- Generator: Adobe Illustrator 29.3.1, SVG Export Plug-In . SVG Version: 2.1.0 Build 151)  -->
  <defs>
    <style>
      .st0 {
        fill: #ccc;
        fill-opacity: .8;
      }
    </style>
  </defs>
  <path class="st0" d="M18.8,17.7l-3.8-3.8c.7-.9,1.1-2.1,1.1-3.3,0-3-2.5-5.5-5.5-5.5s-5.5,2.5-5.5,5.5,2.5,5.5,5.5,5.5,2.4-.4,3.3-1.1l3.8,3.8c.2.2.3.2.5.2s.4,0,.5-.2c.3-.3.3-.8,0-1.1h.1ZM6.1,10.5c0-2.4,2-4.4,4.4-4.4s4.4,2,4.4,4.4-2,4.4-4.4,4.4-4.4-2-4.4-4.4Z"/>
</svg>
